X: 29009
T: Navvy Of Kinlochleven, The
R: reel
M: 4/4
K: Gmajor
|:ed|ecAG EGAc|edeg a2 eg|af f/f/f d2 de|fgab afdf|
ecAG EGAc|edeg a2 eg|af f/f/f defe|dcAG A2:|
|:AG|Aced e3 d|ecAG EFGB|AF F/F/F DEFD|FGAB cBAG|
Aced e3 d|ecAG EFGB|Ac c/c/c dcAG|EAAG A2:|

